!!!!SEGMENT: Ano2007-Pavane_III--Second_livre_contenant_trois_Gaillardes.krn
!!!id: Ano2007
!!!AGN: Pavane
!!!voices: 4
!!!COM: Anonymous
!!!OTL: Pavane III (Second livre contenant trois Gaillardes)
**kern	**kern	**kern	**kern
*part4	*part3	*part2	*part1
*staff4	*staff3	*staff2	*staff1
*I"Bassus	*I"Tenor	*I"Altus	*I"Superius
*I'B	*I'T	*I'A	*I'S
*clefF4	*clefGv2	*clefGv2	*clefGv2
*k[]	*k[]	*k[]	*k[]
*C:	*C:	*C:	*C:
*M2/1	*M2/1	*M2/1	*M2/1
*met(C|)	*met(C|)	*met(C|)	*met(C|)
0D	0d	0A	2.d
.	.	.	4e
.	.	.	4f
.	.	.	4e
.	.	.	4f
.	.	.	4g
=1	=1	=1	=1
1AA	1c	2A	1a
.	.	2.e	.
1E	2B	.	1g
.	.	4d	.
.	2G	4B	.
.	.	4c	.
=2	=2	=2	=2
2.D	2A	2d	2.f
.	1F	1A	.
4C	.	.	4e
1BB	.	.	2d
.	4E	2G	2d
.	4D	.	.
=3	=3	=3	=3
1AA	2E	1A	0c
.	2F	.	.
[1AA	2E	2E	.
.	[2A	2F	.
=4	=4	=4	=4
1AA]	4A]	2E	1c
.	4G	.	.
.	4F	2.A	.
.	4E	.	.
1D	1F	.	1d
.	.	4G	.
.	.	4A	.
.	.	4B	.
=5	=5	=5	=5
2.C	1G	2.c	1e
4C	.	4B	.
2D	2F	2A	1d
2BB	2D	2G	.
=6	=6	=6	=6
1AA	2E	0A	2c
.	2F	.	1d
1AA	1E	.	.
.	.	.	2c#i
=7	=7	=7	=7
0D	0D	0F#X	0d
=8	=8	=8	=8
0D	0d	0A	2.d
.	.	.	4e
.	.	.	4f
.	.	.	4e
.	.	.	4f
.	.	.	4g
=9	=9	=9	=9
1AA	1c	2A	1a
.	.	2.e	.
1E	2B	.	1g
.	.	4d	.
.	2G	4B	.
.	.	4c	.
=10	=10	=10	=10
2.D	2A	2d	2.f
.	1F	1A	.
4C	.	.	4e
1BB	.	.	2d
.	4E	2G	2d
.	4D	.	.
=11	=11	=11	=11
1AA	2E	1A	0c
.	2F	.	.
[1AA	2E	2E	.
.	[2A	2F	.
=12	=12	=12	=12
1AA]	4A]	2E	1c
.	4G	.	.
.	4F	2.A	.
.	4E	.	.
1D	1F	.	1d
.	.	4G	.
.	.	4A	.
.	.	4B	.
=13	=13	=13	=13
2.C	1G	2.c	1e
4C	.	4B	.
2D	2F	2A	1d
2BB	2D	2G	.
=14	=14	=14	=14
1AA	2E	0A	2c
.	2F	.	1d
1AA	1E	.	.
.	.	.	2c#i
=15	=15	=15	=15
0D	0D	0F#X	0d
=16	=16	=16	=16
0AA	1c	0A	1e
.	2.c	.	1a
.	4d	.	.
=17	=17	=17	=17
2E	1e	2B	1g
2C	.	2c	.
1D	2.d	2A	2f
.	.	2f	[2a
.	4c	.	.
=18	=18	=18	=18
2E	2B	2e	2a]
2F	2A	2d	4g#i
.	.	.	4f#i
1E	1B	1e	1g#i
=19	=19	=19	=19
0AA	1A	2c	0a
.	.	2.A	.
.	2r	.	.
.	.	4B	.
.	[2A	4c	.
.	.	4d	.
=20	=20	=20	=20
1AA	4A]	1e	2r
.	4B	.	.
.	4c	.	2.A
.	4d	.	.
1AA	[1e	2.E	.
.	.	.	4B
.	.	.	4c
.	.	4F	4d
=21	=21	=21	=21
2E	2e]	2G	2e
2C	2e	2E	2g
2D	2d	4F	2f
.	.	4G	.
4AA	2c	4A	2e
4C	.	4F	.
=22	=22	=22	=22
2GG	2B	2G	0d
2AA	1A	2.E	.
1BB	.	.	.
.	.	4D	.
.	2G	2D	.
=23	=23	=23	=23
0AA	2A	1E	0c
.	4G	.	.
.	4F	.	.
.	1E	1A	.
=24	=24	=24	=24
0AA	1c	0A	1e
.	2.c	.	1a
.	4d	.	.
=25	=25	=25	=25
2E	1e	2B	1g
2C	.	2c	.
1D	2.d	2A	2f
.	.	2f	[2a
.	4c	.	.
=26	=26	=26	=26
2E	2B	2e	2a]
2F	2A	2d	4g#i
.	.	.	4f#i
1E	1B	1e	1g#i
=27	=27	=27	=27
0AA	1A	2c	0a
.	.	2.A	.
.	2r	.	.
.	.	4B	.
.	[2A	4c	.
.	.	4d	.
=28	=28	=28	=28
1AA	4A]	1e	2r
.	4B	.	.
.	4c	.	2.A
.	4d	.	.
1AA	[1e	2.E	.
.	.	.	4B
.	.	.	4c
.	.	4F	4d
=29	=29	=29	=29
2E	2e]	2G	2e
2C	2e	2E	2g
2D	2d	4F	2f
.	.	4G	.
4AA	2c	4A	2e
4C	.	4F	.
=30	=30	=30	=30
2GG	2B	2G	0d
2AA	1A	2.E	.
1BB	.	.	.
.	.	4D	.
.	2G	2D	.
=31	=31	=31	=31
0AA	2A	1E	0c
.	4G	.	.
.	4F	.	.
.	1E	1A	.
=32	=32	=32	=32
0FF	0A	[0c	0f
=33	=33	=33	=33
1C	1G	1c]	1e
2D	2F	2A	1d
2GG	2G	2B	.
=34	=34	=34	=34
2AA	2F	2A	2c
2BB	2D	2G	1d
1AA	1E	1A	.
.	.	.	2c#i
=35	=35	=35	=35
0D	0D	0F#X	0d
=36	=36	=36	=36
0FF	0A	[0c	0f
=37	=37	=37	=37
1C	1G	1c]	1e
2D	2F	2A	1d
2GG	2G	2B	.
=38	=38	=38	=38
2AA	2F	2A	2c
2BB	2D	2G	1d
1AA	1E	1A	.
.	.	.	2c#i
=39	=39	=39	=39
0D	0D	0F#X	0d
=40	=40	=40	=40
0D	0d	0A	0f
=41	=41	=41	=41
1AA	1.c	1A	1e
1FF	.	1A	4a
.	.	.	4g
.	2A	.	4f
.	.	.	4e
=42	=42	=42	=42
2GG	2B	2G	4d
.	.	.	4c
2FF	2A	2c	1f
1C	1G	1c	.
.	.	.	2e
=43	=43	=43	=43
0FF	2.F	1c	0f
.	4G	.	.
.	4A	1c	.
.	4B	.	.
.	4c	.	.
.	4d	.	.
=44	=44	=44	=44
1.C	1.e	1c	1.g
.	.	2r	.
2D	2d	2A	2f
=45	=45	=45	=45
0AA	2.c	1A	2.e
.	4B	.	4d
.	4A	2A	4c
.	4G	.	4B
.	4F	2c	4A
.	4E	.	4G
=46	=46	=46	=46
2D	2F	2A	2A
2GG	2G	2B	1d
1AA	1E	1A	.
.	.	.	2c#i
=47	=47	=47	=47
0DD	0D	0F#X	0d
=48	=48	=48	=48
0D	0d	0A	0f
=49	=49	=49	=49
1AA	1.c	1A	1e
1FF	.	1A	4a
.	.	.	4g
.	2A	.	4f
.	.	.	4e
=50	=50	=50	=50
2GG	2B	2G	4d
.	.	.	4c
2FF	2A	2c	1f
1C	1G	1c	.
.	.	.	2e
=51	=51	=51	=51
0FF	2.F	1c	0f
.	4G	.	.
.	4A	1c	.
.	4B	.	.
.	4c	.	.
.	4d	.	.
=52	=52	=52	=52
1.C	1.e	1c	1.g
.	.	2r	.
2D	2d	2A	2f
=53	=53	=53	=53
0AA	2.c	1A	2.e
.	4B	.	4d
.	4A	2A	4c
.	4G	.	4B
.	4F	2c	4A
.	4E	.	4G
=54	=54	=54	=54
2D	2F	2A	2A
2GG	2G	2B	1d
1AA	1E	1A	.
.	.	.	2c#i
=55	=55	=55	=55
00DDl	00Dl	00F#Xl	00dl
==	==	==	==
*-	*-	*-	*-
!!!system-decoration: [*]
!!!RDF**kern: i = editorial accidental
!!!RDF**kern: l = terminal long
!!!ENC: Benjamin Ory
!!!END: 2024/2/28
!!!EED: Benjamin Ory
!!!EEV: 2024/02/28
!!!YEC: Copyright 2024 Benjamin Ory, All Rights Reserved
!!!ONB: Translated from MusicXML on 2024/02/28